X: 1
T: Hull's Victory
R: hornpipe, reel
Z: 1997 by John Chambers <jc:trillian.mit.edu>
M: C|
L: 1/8
K: F
|: c2 \
| "F"fcfa fcfg | "C7"agfe "F"f2AB | "(C)"c2cd c2B2 | "C7"ABGA "F"F2c2 |
| "F"fcfa fcfa | "C7"g2g2 g2ag | "G7"fedc =BcdB | "C"c2e2 c2 :|
|: c2 \
| "F"fefg agfe | "Bb"d2B2 B2ef | "G7"g^fga bag=f | "C7"e2c2 c2(3cde |
| "F"fcfa fcfa | "C7"gcgb gcgb | "F"agfa "C7"gfeg | "F"f2a2f2 :|
